X:1
T:Southerton, 88.86 D
T:W. I. Southerton, 1901
T:Southerton, 88.86 D
T:Public Domain
C:W. I. Southerton, 1901
Z:Public Domain
%%score ( 1 2 ) ( 3 4 )
L:1/8
M:4/4
K:C
V:1 treble 
V:2 treble 
V:3 bass 
V:4 bass 
V:1
 ([CE][DF]) | [EG]3 [EG] [EA]2 ([CE][DF]) | [EG]3 [EG] [EA]2 ([CE][DF]) | %3
 [EG][EA][EB][Ec] [Ed]2 [Ec]2 | [FB]6 ([B,D][CE]) | [DF]2 [B,G]2 [FA]2 [FB]2 | %6
 [EG]2 [EA]2 [EB]2 [Ec]2 | [Dd]3 [^CG] [DB]2 [=CA]2 | [B,G]6 G2 | [Fd]3 [F^c] [Fd]2 [FG]2 | %10
 [Ec]3 [DB] [Cc]2 G2 | [FA][Ac][GB][FA] [EG]2 [Gc]2 | [Gd]6 G2 | [Ge]3 [Fd] [Ec]2 (de) | %14
 [Ff]2 [FA]2 [^Dc]2 (BA) | (GA)(Bc) [Fd]3 [Ec] | [Ec]6 |] %17
V:2
 x2 | x8 | x8 | x8 | x8 | x8 | x8 | x8 | x6 G2 | x8 | x6 G2 | x8 | x6 G2 | x6 G2 | x6 ^D2 | %15
 E2 E2 x4 | x6 |] %17
V:3
 [C,G,]2 | [C,G,]2 [G,,G,]2 [C,G,]2 [G,,G,]2 | [C,G,]2 [G,,G,]2 [C,G,]2 [G,,G,]2 | %3
 [C,G,]2 [G,,G,]2 [C,G,]2 [G,,G,]2 | ([D,G,]2 [G,,G,]2 [D,G,]2) [G,,G,]2 | %5
 [B,,G,]2 [G,,G,]2 [D,G,]2 [G,,G,]2 | [C,G,]2 [G,,G,]2 [C,G,]2 [G,,G,]2 | %7
 [B,,G,]3 [E,A,] [D,G,]2 [D,^F,]2 | ([G,,G,]2 D,2 G,,2) G,2 | [G,B,]3 [G,^A,] [G,B,]2 [G,B,]2 | %10
 [C,G,]3 [D,G,] [E,G,]2 [E,C]2 | [F,C][F,C][F,C][F,C] [C,C]2 [E,C]2 | (z2 B,A, G,2) G,2 | %13
 [C,C]3 [C,G,] [C,_B,]2 [C,B,]2 | [F,A,]2 [F,C]2 [^F,A,]2 (B,C) | [G,C]2 [G,C]2 [G,,B,]3 [C,G,] | %16
 [C,G,]6 |] %17
V:4
 x2 | x8 | x8 | x8 | x8 | x8 | x8 | x8 | x6 G,2 | x8 | x8 | x8 | ([G,B,]6 G,2) | x8 | x6 ^F,2 | %15
 x8 | x6 |] %17

